X: 43
T: No_49_War_Song_(b).krn
N: Derived from No_49_War_Song_(b).krn
%%abc-version 2.0
%%abcx-abcm2ps-target-version 5.9.1 (29 Sep 2008)
%%abc-creator hum2abc beta
%%abcx-conversion-date 2019/03/15 08:25:35
%%humdrum-veritas 118577490
%%humdrum-veritas-data 183155678
%%linebreak <none>
%%barnumbers 0
L: 1/16
M: 2/4
K: Db clef=bass
[K:clef=bass][M:2/4]D,3D,D,4 | 
D,4D,3D, ]|:  
FED2 D3B, | 
D4D3D | 
B,A,3A,4 | 
[M:3/4]A,4A,2 z2 A,3A, | 
[M:2/4]FED2 D3B, | 
D4D3D | 
B,A,3A,4 | 
A,3A, A,2 z2 | 
B,3B, B,3B, | 
[M:3/8]D2DB,B,2 | 
A,2A,F,F,2 | 
[M:3/4]F,4F,4F,2 z B, | 
[M:2/4]B,3B, B,3B, | 
[M:3/8]D2DB,B,2 | 
A,2A,F,F,2 | 
[M:3/4]F,4F,4F,2 z B, | 
B,A,3A,4B,B,A,2 | 
F,4F,2F,F, D,2 z G, | 
[M:2/4]F,3G, F,E,3 | 
F,4(3F,2E,2F,2 | 
D,4D,4 | 
D,2 z2D,4 :|]  
D,2 z F, F,2F,D, | 
F,4F,4 | 
F,2 z F, F,2F,D, | 
[M:3/4]F,4F,4F,2 z2 | 
[M:2/4]B,3B, B,3B, | 
[M:3/8]D2DB,B,2 | 
A,2A,F,F,2 | 
[M:3/4]F,4F,4F,2 z B, | 
[M:2/4]B,3B, B,3B, | 
[M:3/8]D2D4 | 
B,4B,2 | 
A,2A,F,F,2 | 
[M:3/4]F,4F,4F,2 z B, | 
B,A,3A,4B,B,A,2 | 
F,4F,2F,F, D,2 z G, | 
[M:2/4]F,3G, F,E,3 | 
[M:3/8]F,2F,E,F,2 | 
[M:2/4]D,3D,D,4 | 
D,4D,2 z2 |]  



